X:1
T:The Hammer on the Anvil
M:6/8
L:1/8
Q:80
C:P/M Donald MacLeod
S:Jig
K:HP
|: {g}G3{d}B3 | \
{g}G2{d}B{g}B{e}B{A}B | \
{gf}g3{ef}e2d |
{g}G2{d}B{g}B{e}B{A}B | \
{g}G3{d}B3 | \
{g}G2{d}B{g}B{e}B{A}B |
{g}de{A}e{g}edB | \
{g}A3{GAG}A2 :: \
{g}G3{gf}g3 |
{ag}a2g{a}fgf | \
{gef}e2d{gBd}B3 | \
{g}G2{d}B{g}B{e}B{A}B |
{g}G3{gf}g3 | \
{ag}a2g{a}fgf | \
{gef}e2d{g}B{d}B{e}B |
{g}A3{GAG}A2 :: \
G3{de}d3 | \
{gef}e2d{g}d{e}d{A}d |
{gBd}B2A{g}B{d}B{e}B | \
{gef}e2d{g}d{e}d{A}d | \
G3{de}d3 |
{gef}e2d{g}d{e}d{A}d | \
{g}Be{A}e{g}edB | \
{g}A3{GAG}A2 ::
{g}G3{gf}g3 | \
{a}gaf{gf}g3 | \
{ef}e2d{g}B{d}B{e}B |
{g}Ged{g}B{d}B{e}B | \
{g}G3{gf}g3 | \
{a}gaf{gf}g2f |
{gef}e2d{g}B{d}B{e}B | \
{g}A3{GAG}A2 :|
